**kern	**kern	**dynam
*part1	*part1	*part1
*staff2	*staff1	*
*I"Piano	*	*
*clefF4	*clefG2	*
*k[f#c#g#d#]	*k[f#c#g#d#]	*
*M6/8	*M6/8	*
=1	=1	=1
8ryy	8ryy	.
*clefG2	*	*
8e 8g# 8b	8ee 8gg# 8bb	mf
=	=	=
4e 4a 4cc#	4ee 4aa 4ccc#	.
8e 8b 8dd#	8ff# 8aa 8bb 8ddd#	.
4e 4b 4ee	4gg# 4bb 4eee	.
8e 8g# 8b	8ee 8gg# 8bb	.
=	=	=
4e 4a 4cc#	4.ee 4.aa 4.ccc#	.
8A	.	.
4e 4g# 4b	4.ee 4.gg# 4.bb	.
8E	.	.
=	=	=
4c# 4e 4a	4.cc# 4.ee 4.aa	.
8F#	.	.
4d# 4f# 4b	4.dd# 4.ff# 4.bb	.
*clefF4	*	*
8BB	.	.
=	=	=
4B 4e 4g#	4.b 4.ee 4.gg#	.
8E	.	.
4E	4r	.
8E 8G#	8e 8g#	<
=	=	=
4E 4G#	4e 4g#	.
8G# 8B	8g# 8b	.
4G# 4B	4g# 4b	.
8B 8e	8b 8ee	.
=	=	=
4B 4e	4b 4ee	.
*clefG2	*	*
8e 8g#	8b 8gg#	.
4e 4g#	4b 4gg#	[
8d# 8f#	8b 8ff#	.
=	=	=
*-	*-	*-
!!!system-decoration: {(s1,s2)}
